build/images/icons/envelope.svg

<svg width="40" height="40" viewBox="0 0 40 40" fill="none" xmlns="http://www.w3.org/2000/svg">
<path d="M33.3335 6.66675H6.66683C4.8335 6.66675 3.3335 8.16675 3.3335 10.0001V30.0001C3.3335 31.8334 4.8335 33.3334 6.66683 33.3334H33.3335C35.1668 33.3334 36.6668 31.8334 36.6668 30.0001V10.0001C36.6668 8.16675 35.1668 6.66675 33.3335 6.66675ZM32.6668 13.7501L21.7668 20.5667C20.6835 21.2501 19.3168 21.2501 18.2335 20.5667L7.3335 13.7501C6.91683 13.4834 6.66683 13.0334 6.66683 12.5501C6.66683 11.4334 7.8835 10.7667 8.8335 11.3501L20.0002 18.3334L31.1668 11.3501C32.1168 10.7667 33.3335 11.4334 33.3335 12.5501C33.3335 13.0334 33.0835 13.4834 32.6668 13.7501Z"/>
</svg>

<svg width="40" height="40" fill="none" xmlns="http://www.w3.org/2000/svg"><path d="M33.334 6.667H6.666A3.343 3.343 0 003.334 10v20c0 1.833 1.5 3.333 3.333 3.333h26.666c1.834 0 3.334-1.5 3.334-3.333V10c0-1.833-1.5-3.333-3.334-3.333zm-.667 7.083l-10.9 6.817a3.3 3.3 0 01-3.534 0l-10.9-6.817a1.426 1.426 0 01-.666-1.2c0-1.117 1.216-1.783 2.167-1.2L20 18.333l11.167-6.983c.95-.583 2.166.083 2.166 1.2 0 .483-.25.933-.666 1.2z"/></svg>
